X: 10
T:Darling Nellie Gray
M:2/4
L:1/8
R:2nd Change
Z:<cfalt@trytel.com> www.trytel.com/~cfalt/Fiddle/The_List.abc mod by sn
Q:300
K:G
Bc|"G"d^cde|"G7"dBAG|"C"cdef|g2fe|"G"d2d>d|edBG|"D7"A4-|A2Bc|!
"G"d^cde|"G7"dBAG|"C"cdef|g2fe|"G"d2B>d|"D7"dcAF|"G"G4-|G2:|!
|:GAB|"C"c2c>c|c2e>e|"G"eddB|d2Bc|dd^cd|edBG|"D7"A4-|A2Bc|!
"G"d^cde|"G7"dBAG|"C"cdef|g2fe|"G"d2B>d|"D7"dcAF|"G"G4-|G2:|]
